docs/img/all-services/10.svg

<svg width="80" height="79" viewBox="0 0 80 79" fill="none" xmlns="http://www.w3.org/2000/svg">
<path d="M31.1931 61.6143L24.9435 65.2446L9.375 56.2021V41.8102" stroke="#0098D0" stroke-width="2" stroke-miterlimit="10" stroke-linecap="round" stroke-linejoin="round"/>
<path d="M12.5508 36.2717L24.9421 29.0739L34.1385 34.4158" stroke="#0098D0" stroke-width="2" stroke-miterlimit="10" stroke-linecap="round" stroke-linejoin="round"/>
<path d="M24.9414 29.0826V10.9975L40.5093 1.95441L52.9 9.15218" stroke="#0098D0" stroke-width="2" stroke-miterlimit="10" stroke-linecap="round" stroke-linejoin="round"/>
<path d="M56.0781 14.6956V30.0724" stroke="#0098D0" stroke-width="2" stroke-miterlimit="10" stroke-linecap="round" stroke-linejoin="round"/>
<path d="M24.9409 10.9975L16.3633 6.14923" stroke="#0098D0" stroke-width="2" stroke-miterlimit="10" stroke-linecap="round" stroke-linejoin="round"/>
<path d="M13.5366 7.86088C15.3022 7.86088 16.7334 6.42096 16.7334 4.64474C16.7334 2.86851 15.3022 1.42859 13.5366 1.42859C11.7711 1.42859 10.3398 2.86851 10.3398 4.64474C10.3398 6.42096 11.7711 7.86088 13.5366 7.86088Z" stroke="#0098D0" stroke-width="2" stroke-miterlimit="10" stroke-linecap="round" stroke-linejoin="round"/>
<path d="M1.42969 38.117C1.42969 33.7101 4.99282 30.1247 9.37323 30.1247" stroke="#0098D0" stroke-width="2" stroke-miterlimit="10" stroke-linecap="round" stroke-linejoin="round"/>
<path d="M9.37471 41.8101C11.4025 41.8101 13.0463 40.1564 13.0463 38.1164C13.0463 36.0763 11.4025 34.4226 9.37471 34.4226C7.34695 34.4226 5.70312 36.0763 5.70312 38.1164C5.70312 40.1564 7.34695 41.8101 9.37471 41.8101Z" stroke="#0098D0" stroke-width="2" stroke-miterlimit="10" stroke-linecap="round" stroke-linejoin="round"/>
<path d="M56.0781 3.00513C60.4579 3.00513 64.0211 6.59048 64.0211 10.9974" stroke="#0098D0" stroke-width="2" stroke-miterlimit="10" stroke-linecap="round" stroke-linejoin="round"/>
<path d="M56.0778 14.6912C58.1056 14.6912 59.7494 13.0374 59.7494 10.9974C59.7494 8.95738 58.1056 7.30365 56.0778 7.30365C54.0501 7.30365 52.4062 8.95738 52.4062 10.9974C52.4062 13.0374 54.0501 14.6912 56.0778 14.6912Z" stroke="#0098D0" stroke-width="2" stroke-miterlimit="10" stroke-linecap="round" stroke-linejoin="round"/>
<path d="M9.37247 56.2021L5.21875 58.5881" stroke="#0098D0" stroke-width="2" stroke-miterlimit="10" stroke-linecap="round" stroke-linejoin="round"/>
<path d="M3.54453 62.0359C4.71253 62.0359 5.65937 61.0832 5.65937 59.9082C5.65937 58.7331 4.71253 57.7806 3.54453 57.7806C2.37653 57.7806 1.42969 58.7331 1.42969 59.9082C1.42969 61.0832 2.37653 62.0359 3.54453 62.0359Z" stroke="#0098D0" stroke-width="2" stroke-miterlimit="10" stroke-linecap="round" stroke-linejoin="round"/>
<path d="M50.2878 50.4867V37.9106C51.1615 37.9106 51.8697 37.1981 51.8697 36.3191V33.7699H38.1562V36.3191C38.1562 37.1981 38.8645 37.9106 39.7381 37.9106V50.4867" stroke="#0098D0" stroke-width="2" stroke-miterlimit="10" stroke-linecap="round" stroke-linejoin="round"/>
<path d="M42.5348 57.3966H36.1995C34.3034 57.3966 32.7656 55.8495 32.7656 53.9419C32.7656 52.0337 34.3034 50.4872 36.1995 50.4872H50.1788" stroke="#0098D0" stroke-width="2" stroke-miterlimit="10" stroke-linecap="round" stroke-linejoin="round"/>
<path d="M43.6237 64.3071H38.3011C36.4043 64.3071 34.8672 62.76 34.8672 60.8524" stroke="#0098D0" stroke-width="2" stroke-miterlimit="10" stroke-linecap="round" stroke-linejoin="round"/>
<path d="M43.6263 71.2171H40.5784C38.6816 71.2171 37.1445 69.6701 37.1445 67.7625" stroke="#0098D0" stroke-width="2" stroke-miterlimit="10" stroke-linecap="round" stroke-linejoin="round"/>
<path d="M72.4349 72.5177C66.1088 72.3808 64.9043 72.8967 64.9043 72.8967C64.9043 72.8967 63.328 73.2074 61.3246 73.8565C55.1271 75.8639 50.7522 76.9487 44.2484 77.1194L42.6604 77.1429C40.7637 77.1429 39.2266 75.5958 39.2266 73.6882" stroke="#0098D0" stroke-width="2" stroke-miterlimit="10" stroke-linecap="round" stroke-linejoin="round"/>
<path d="M50.1797 42.5511C50.516 42.5215 50.8579 42.4844 51.2059 42.4376C54.2483 42.0339 57.3354 42.7556 59.8625 44.5067C61.4658 45.6186 63.2848 46.9499 64.9585 48.3398C64.9585 48.3398 68.3244 51.7685 72.437 51.7685" stroke="#0098D0" stroke-width="2" stroke-miterlimit="10" stroke-linecap="round" stroke-linejoin="round"/>
<path d="M39.2266 73.6882V71.2172" stroke="#0098D0" stroke-width="2" stroke-miterlimit="10" stroke-linecap="round" stroke-linejoin="round"/>
<path d="M37.1445 67.7618V64.1006" stroke="#0098D0" stroke-width="2" stroke-miterlimit="10" stroke-linecap="round" stroke-linejoin="round"/>
<path d="M78.5737 47.8702H74.3826C73.3081 47.8702 72.4375 48.7461 72.4375 49.8272V74.474C72.4375 75.5551 73.3081 76.4316 74.3826 76.4316H78.5737" stroke="#0098D0" stroke-width="2" stroke-miterlimit="10" stroke-linecap="round" stroke-linejoin="round"/>
<path d="M34.8672 60.8519V57.1273" stroke="#0098D0" stroke-width="2" stroke-miterlimit="10" stroke-linecap="round" stroke-linejoin="round"/>
<path d="M39.7383 37.9106H42.9884" stroke="#0098D0" stroke-width="2" stroke-miterlimit="10" stroke-linecap="round" stroke-linejoin="round"/>
</svg>

<svg width="80" height="79" fill="none" xmlns="http://www.w3.org/2000/svg"><path d="M31.193 61.614l-6.25 3.63-15.568-9.042V41.81m3.175-5.538l12.392-7.198 9.197 5.342" stroke="#0098D0" stroke-width="2" stroke-miterlimit="10" stroke-linecap="round" stroke-linejoin="round"/><path d="M24.941 29.083V10.998L40.51 1.954 52.9 9.152m3.178 5.544v15.376M24.94 10.998l-8.577-4.849M13.537 7.86a3.206 3.206 0 003.196-3.215 3.206 3.206 0 00-3.196-3.216 3.207 3.207 0 00-3.197 3.216 3.207 3.207 0 003.197 3.216zM1.43 38.117c0-4.407 3.563-7.992 7.943-7.992m.002 11.685c2.027 0 3.671-1.654 3.671-3.694s-1.643-3.693-3.671-3.693c-2.028 0-3.672 1.653-3.672 3.693s1.644 3.694 3.672 3.694zM56.078 3.005c4.38 0 7.943 3.585 7.943 7.992" stroke="#0098D0" stroke-width="2" stroke-miterlimit="10" stroke-linecap="round" stroke-linejoin="round"/><path d="M56.078 14.691c2.028 0 3.671-1.654 3.671-3.694s-1.643-3.693-3.671-3.693c-2.028 0-3.672 1.653-3.672 3.693s1.644 3.694 3.672 3.694zM9.372 56.202L5.22 58.588m-1.675 3.448a2.121 2.121 0 002.114-2.128 2.121 2.121 0 00-2.114-2.127 2.121 2.121 0 00-2.115 2.127c0 1.175.947 2.128 2.115 2.128zm46.743-11.549V37.91c.873 0 1.582-.713 1.582-1.592v-2.55H38.156v2.55c0 .88.709 1.592 1.582 1.592v12.576m2.797 6.911H36.2c-1.897 0-3.434-1.547-3.434-3.455 0-1.908 1.537-3.455 3.434-3.455h13.979m-6.555 13.82H38.3c-1.897 0-3.434-1.547-3.434-3.455m8.76 10.365h-3.048c-1.896 0-3.434-1.547-3.434-3.454m35.291 4.755c-6.326-.137-7.53.379-7.53.379s-1.577.31-3.58.96c-6.198 2.007-10.573 3.092-17.077 3.262l-1.588.024c-1.896 0-3.433-1.547-3.433-3.455" stroke="#0098D0" stroke-width="2" stroke-miterlimit="10" stroke-linecap="round" stroke-linejoin="round"/><path d="M50.18 42.551c.336-.03.678-.067 1.026-.113a12.33 12.33 0 018.656 2.069c1.604 1.112 3.423 2.443 5.096 3.833 0 0 3.366 3.428 7.479 3.428m-33.21 21.92v-2.47m-2.082-3.456V64.1" stroke="#0098D0" stroke-width="2" stroke-miterlimit="10" stroke-linecap="round" stroke-linejoin="round"/><path d="M78.574 47.87h-4.191a1.95 1.95 0 00-1.945 1.957v24.647c0 1.081.87 1.958 1.945 1.958h4.19m-43.706-15.58v-3.725m4.871-19.217h3.25" stroke="#0098D0" stroke-width="2" stroke-miterlimit="10" stroke-linecap="round" stroke-linejoin="round"/></svg>
